( pcb2gcode 2.0.0 )
( Software-independent Gcode )

G94 ( Inches per minute feed rate. )
G20 ( Units == INCHES. )

G90 ( Absolute coordinates. )
G00 S2000 ( RPM spindle speed. )
G64 P0.00040 ( set maximum deviation from commanded toolpath )
G01 F5.90551 ( Feedrate. )


G00 Z0.39370 (Retract to tool change height)
T0
M5      (Spindle stop.)
G04 P1.00000 (Wait for spindle to stop)
(MSG, Change tool bit to mill diameter 0.00000in)
M6      (Tool change.)
M0      (Temporary machine stop.)
M3 ( Spindle on clockwise. )
G04 P1.00000 (Wait for spindle to get up to speed)
G04 P0 ( dwell for no time -- G64 should not smooth over this point )
G00 Z0.07874 ( retract )

G00 X0.18504 Y-0.19685 ( rapid move to begin. )
G01 F2.95276
G01 Z-0.00787
G04 P0 ( dwell for no time -- G64 should not smooth over this point )
G01 F5.90551
G01 X0.18504 Y-0.19685
G01 X0.18504 Y-0.16929
G01 X0.18590 Y-0.16110
G01 X0.18844 Y-0.15328
G01 X0.19256 Y-0.14615
G01 X0.19806 Y-0.14003
G01 X0.20472 Y-0.13520
G01 X0.21224 Y-0.13185
G01 X0.22029 Y-0.13014
G01 X0.22852 Y-0.13014
G01 X0.23658 Y-0.13185
G01 X0.24409 Y-0.13520
G01 X0.25075 Y-0.14003
G01 X0.25626 Y-0.14615
G01 X0.26038 Y-0.15328
G01 X0.26292 Y-0.16110
G01 X0.26378 Y-0.16929
G01 X0.26378 Y-0.19685
G01 X0.26292 Y-0.20503
G01 X0.26038 Y-0.21286
G01 X0.25787 Y-0.21720
G01 X0.25787 Y-0.23031
G01 X0.24496 Y-0.23031
G01 X0.24016 Y-0.23270
G01 X0.24016 Y-0.25529
G01 X0.31951 Y-0.33465
G01 X0.38583 Y-0.33465
G01 X0.39185 Y-0.33584
G01 X0.39458 Y-0.33730
G01 X0.49932 Y-0.44162
G01 X0.50274 Y-0.44673
G01 X0.50363 Y-0.44968
G01 X0.50363 Y-0.45583
G01 X0.50274 Y-0.45878
G01 X0.50000 Y-0.46307
G01 X0.50000 Y-0.75039
G01 X0.49880 Y-0.75642
G01 X0.49539 Y-0.76153
G01 X0.33502 Y-0.92189
G01 X0.33588 Y-0.92454
G01 X0.33661 Y-0.93150
G01 X0.33588 Y-0.93845
G01 X0.33372 Y-0.94511
G01 X0.33022 Y-0.95117
G01 X0.32554 Y-0.95637
G01 X0.31988 Y-0.96048
G01 X0.31349 Y-0.96332
G01 X0.30665 Y-0.96478
G01 X0.29965 Y-0.96478
G01 X0.29281 Y-0.96332
G01 X0.28642 Y-0.96048
G01 X0.28076 Y-0.95637
G01 X0.27608 Y-0.95117
G01 X0.27258 Y-0.94511
G01 X0.27042 Y-0.93845
G01 X0.26969 Y-0.93150
G01 X0.27042 Y-0.92454
G01 X0.27258 Y-0.91788
G01 X0.27608 Y-0.91183
G01 X0.28076 Y-0.90663
G01 X0.28642 Y-0.90251
G01 X0.29281 Y-0.89967
G01 X0.29965 Y-0.89821
G01 X0.30665 Y-0.89821
G01 X0.31284 Y-0.89953
G01 X0.46850 Y-0.74387
G01 X0.46863 Y-0.45546
G01 X0.37930 Y-0.36614
G01 X0.31299 Y-0.36614
G01 X0.30696 Y-0.36494
G01 X0.30186 Y-0.36153
G01 X0.21132 Y-0.27056
G01 X0.20986 Y-0.26784
G01 X0.20866 Y-0.26181
G01 X0.20866 Y-0.23270
G01 X0.20386 Y-0.23031
G01 X0.19094 Y-0.23031
G01 X0.19094 Y-0.21720
G01 X0.18844 Y-0.21286
G01 X0.18590 Y-0.20503
G01 X0.18504 Y-0.19685
G04 P0 ( dwell for no time -- G64 should not smooth over this point )
G00 Z0.07874 ( retract )

G00 X0.38504 Y-0.19685 ( rapid move to begin. )
G01 F2.95276
G01 Z-0.00787
G04 P0 ( dwell for no time -- G64 should not smooth over this point )
G01 F5.90551
G01 X0.38504 Y-0.19685
G01 X0.38504 Y-0.14952
G01 X0.38579 Y-0.14184
G01 X0.38804 Y-0.13446
G01 X0.39167 Y-0.12765
G01 X0.39657 Y-0.12169
G01 X0.40523 Y-0.11302
G01 X0.41163 Y-0.10784
G01 X0.41896 Y-0.10411
G01 X0.42691 Y-0.10198
G01 X0.43513 Y-0.10155
G01 X0.44326 Y-0.10283
G01 X0.45094 Y-0.10578
G01 X0.45785 Y-0.11027
G01 X0.46367 Y-0.11609
G01 X0.46815 Y-0.12299
G01 X0.47110 Y-0.13067
G01 X0.47239 Y-0.13880
G01 X0.47196 Y-0.14702
G01 X0.46983 Y-0.15497
G01 X0.46609 Y-0.16231
G01 X0.46378 Y-0.16516
G01 X0.46378 Y-0.19685
G01 X0.46268 Y-0.20577
G01 X0.46624 Y-0.20975
G01 X0.46859 Y-0.21543
G01 X0.46890 Y-0.25630
G01 X1.14302 Y-0.93043
G01 X1.14644 Y-0.93554
G01 X1.14733 Y-0.93849
G01 X1.14764 Y-0.96789
G01 X1.17188 Y-0.99213
G01 X1.18898 Y-0.99213
G01 X1.19716 Y-0.99299
G01 X1.20499 Y-0.99553
G01 X1.21212 Y-0.99965
G01 X1.21823 Y-1.00515
G01 X1.22307 Y-1.01181
G01 X1.22642 Y-1.01933
G01 X1.22813 Y-1.02738
G01 X1.22813 Y-1.03561
G01 X1.22642 Y-1.04366
G01 X1.22307 Y-1.05118
G01 X1.21823 Y-1.05784
G01 X1.21212 Y-1.06335
G01 X1.20499 Y-1.06746
G01 X1.19716 Y-1.07001
G01 X1.18898 Y-1.07087
G01 X1.14165 Y-1.07087
G01 X1.13397 Y-1.07011
G01 X1.12658 Y-1.06787
G01 X1.11978 Y-1.06423
G01 X1.10996 Y-1.05548
G01 X1.10478 Y-1.04908
G01 X1.10104 Y-1.04175
G01 X1.09891 Y-1.03380
G01 X1.09848 Y-1.02558
G01 X1.09977 Y-1.01745
G01 X1.10272 Y-1.00977
G01 X1.10720 Y-1.00286
G01 X1.11302 Y-0.99704
G01 X1.11992 Y-0.99256
G01 X1.12559 Y-0.99038
G01 X1.11879 Y-0.98316
G01 X1.11644 Y-0.97748
G01 X1.11614 Y-0.94809
G01 X0.44201 Y-0.27396
G01 X0.43860 Y-0.26885
G01 X0.43770 Y-0.26590
G01 X0.43740 Y-0.23392
G01 X0.42852 Y-0.23600
G01 X0.42029 Y-0.23600
G01 X0.41224 Y-0.23429
G01 X0.40472 Y-0.23095
G01 X0.39807 Y-0.22611
G01 X0.39256 Y-0.21999
G01 X0.38844 Y-0.21286
G01 X0.38590 Y-0.20503
G01 X0.38504 Y-0.19685
G04 P0 ( dwell for no time -- G64 should not smooth over this point )
G00 Z0.07874 ( retract )

G00 X0.48504 Y-0.19685 ( rapid move to begin. )
G01 F2.95276
G01 Z-0.00787
G04 P0 ( dwell for no time -- G64 should not smooth over this point )
G01 F5.90551
G01 X0.48504 Y-0.19685
G01 X0.48504 Y-0.16850
G01 X0.48590 Y-0.16032
G01 X0.48844 Y-0.15249
G01 X0.49256 Y-0.14536
G01 X0.49806 Y-0.13925
G01 X0.50472 Y-0.13441
G01 X0.51224 Y-0.13106
G01 X0.52029 Y-0.12935
G01 X0.52852 Y-0.12935
G01 X0.53658 Y-0.13106
G01 X0.54409 Y-0.13441
G01 X0.55075 Y-0.13925
G01 X0.55626 Y-0.14536
G01 X0.56037 Y-0.15249
G01 X0.56292 Y-0.16032
G01 X0.56378 Y-0.16850
G01 X0.56378 Y-0.19685
G01 X0.56292 Y-0.20503
G01 X0.56037 Y-0.21286
G01 X0.55626 Y-0.21999
G01 X0.55075 Y-0.22611
G01 X0.54409 Y-0.23095
G01 X0.54094 Y-0.23235
G01 X0.54094 Y-0.26119
G01 X1.17928 Y-0.89953
G01 X1.18548 Y-0.89821
G01 X1.19247 Y-0.89821
G01 X1.19932 Y-0.89967
G01 X1.20571 Y-0.90251
G01 X1.21137 Y-0.90663
G01 X1.21605 Y-0.91183
G01 X1.21955 Y-0.91788
G01 X1.22171 Y-0.92454
G01 X1.22244 Y-0.93150
G01 X1.22171 Y-0.93845
G01 X1.21955 Y-0.94511
G01 X1.21605 Y-0.95117
G01 X1.21137 Y-0.95637
G01 X1.20571 Y-0.96048
G01 X1.19932 Y-0.96332
G01 X1.19247 Y-0.96478
G01 X1.18548 Y-0.96478
G01 X1.17864 Y-0.96332
G01 X1.17224 Y-0.96048
G01 X1.16658 Y-0.95637
G01 X1.16190 Y-0.95117
G01 X1.15840 Y-0.94511
G01 X1.15624 Y-0.93845
G01 X1.15551 Y-0.93150
G01 X1.15624 Y-0.92454
G01 X1.15710 Y-0.92189
G01 X0.51406 Y-0.27885
G01 X0.51065 Y-0.27374
G01 X0.50975 Y-0.27079
G01 X0.50945 Y-0.23305
G01 X0.50472 Y-0.23095
G01 X0.49806 Y-0.22611
G01 X0.49256 Y-0.21999
G01 X0.48844 Y-0.21286
G01 X0.48590 Y-0.20503
G01 X0.48504 Y-0.19685
G04 P0 ( dwell for no time -- G64 should not smooth over this point )
G00 Z0.07874 ( retract )

G00 X0.58273 Y-0.14510 ( rapid move to begin. )
G01 F2.95276
G01 Z-0.00787
G04 P0 ( dwell for no time -- G64 should not smooth over this point )
G01 F5.90551
G01 X0.58273 Y-0.14510
G01 X0.58316 Y-0.15332
G01 X0.58504 Y-0.16033
G01 X0.58504 Y-0.19685
G01 X0.58590 Y-0.20503
G01 X0.58844 Y-0.21286
G01 X0.59256 Y-0.21999
G01 X0.59806 Y-0.22611
G01 X0.60472 Y-0.23095
G01 X0.60945 Y-0.23305
G01 X0.60945 Y-0.26772
G01 X0.61065 Y-0.27374
G01 X0.61210 Y-0.27647
G01 X1.15246 Y-0.81725
G01 X1.14982 Y-0.82738
G01 X1.14982 Y-0.83561
G01 X1.15153 Y-0.84366
G01 X1.15488 Y-0.85118
G01 X1.15972 Y-0.85784
G01 X1.16583 Y-0.86335
G01 X1.17296 Y-0.86746
G01 X1.18079 Y-0.87001
G01 X1.18898 Y-0.87087
G01 X1.23150 Y-0.87087
G01 X1.23968 Y-0.87001
G01 X1.24751 Y-0.86746
G01 X1.25464 Y-0.86335
G01 X1.26075 Y-0.85784
G01 X1.26559 Y-0.85118
G01 X1.26894 Y-0.84366
G01 X1.27065 Y-0.83561
G01 X1.27065 Y-0.82738
G01 X1.26894 Y-0.81933
G01 X1.26559 Y-0.81181
G01 X1.26075 Y-0.80515
G01 X1.25464 Y-0.79965
G01 X1.24751 Y-0.79553
G01 X1.23968 Y-0.79299
G01 X1.23150 Y-0.79212
G01 X1.18898 Y-0.79212
G01 X1.18079 Y-0.79299
G01 X1.17471 Y-0.79496
G01 X0.64094 Y-0.26119
G01 X0.64094 Y-0.23235
G01 X0.64409 Y-0.23095
G01 X0.65075 Y-0.22611
G01 X0.65626 Y-0.21999
G01 X0.66038 Y-0.21286
G01 X0.66292 Y-0.20503
G01 X0.66378 Y-0.19685
G01 X0.66378 Y-0.14952
G01 X0.66302 Y-0.14184
G01 X0.66078 Y-0.13446
G01 X0.65714 Y-0.12765
G01 X0.65225 Y-0.12169
G01 X0.64349 Y-0.11414
G01 X0.63616 Y-0.11041
G01 X0.62821 Y-0.10828
G01 X0.61999 Y-0.10785
G01 X0.61186 Y-0.10913
G01 X0.60417 Y-0.11208
G01 X0.59727 Y-0.11657
G01 X0.59145 Y-0.12238
G01 X0.58697 Y-0.12929
G01 X0.58402 Y-0.13697
G01 X0.58273 Y-0.14510
G04 P0 ( dwell for no time -- G64 should not smooth over this point )
G00 Z0.07874 ( retract )

G00 X0.68124 Y-0.14361 ( rapid move to begin. )
G01 F2.95276
G01 Z-0.00787
G04 P0 ( dwell for no time -- G64 should not smooth over this point )
G01 F5.90551
G01 X0.68124 Y-0.14361
G01 X0.68167 Y-0.15183
G01 X0.68380 Y-0.15978
G01 X0.68504 Y-0.16221
G01 X0.68504 Y-0.19685
G01 X0.68590 Y-0.20503
G01 X0.68844 Y-0.21286
G01 X0.69256 Y-0.21999
G01 X0.69807 Y-0.22611
G01 X0.70417 Y-0.23054
G01 X0.70513 Y-0.23418
G01 X0.70855 Y-0.23928
G01 X0.78259 Y-0.31290
G01 X0.78531 Y-0.31435
G01 X0.79134 Y-0.31555
G01 X0.94094 Y-0.31555
G01 X0.94735 Y-0.31419
G01 X0.95020 Y-0.31254
G01 X0.95458 Y-0.30768
G01 X0.95661 Y-0.30145
G01 X0.95592 Y-0.29494
G01 X0.95458 Y-0.29193
G01 X0.95020 Y-0.28706
G01 X0.94422 Y-0.28440
G01 X0.79786 Y-0.28406
G01 X0.74447 Y-0.23067
G01 X0.75075 Y-0.22611
G01 X0.75626 Y-0.21999
G01 X0.76038 Y-0.21286
G01 X0.76292 Y-0.20503
G01 X0.76378 Y-0.19685
G01 X0.76378 Y-0.14952
G01 X0.76302 Y-0.14184
G01 X0.76078 Y-0.13446
G01 X0.75714 Y-0.12765
G01 X0.75225 Y-0.12169
G01 X0.74200 Y-0.11265
G01 X0.73466 Y-0.10891
G01 X0.72671 Y-0.10678
G01 X0.71849 Y-0.10635
G01 X0.71036 Y-0.10764
G01 X0.70268 Y-0.11059
G01 X0.69578 Y-0.11507
G01 X0.68996 Y-0.12089
G01 X0.68547 Y-0.12779
G01 X0.68253 Y-0.13548
G01 X0.68124 Y-0.14361
G04 P0 ( dwell for no time -- G64 should not smooth over this point )
G00 Z0.07874 ( retract )

G00 X0.98583 Y-0.31102 ( rapid move to begin. )
G01 F2.95276
G01 Z-0.00787
G04 P0 ( dwell for no time -- G64 should not smooth over this point )
G01 F5.90551
G01 X0.98583 Y-0.31102
G01 X0.98669 Y-0.31921
G01 X0.98923 Y-0.32704
G01 X0.99335 Y-0.33416
G01 X0.99885 Y-0.34028
G01 X1.00551 Y-0.34512
G01 X1.00945 Y-0.34687
G01 X1.00945 Y-0.43268
G01 X1.01065 Y-0.43870
G01 X1.01210 Y-0.44143
G01 X1.11288 Y-0.54263
G01 X1.11527 Y-0.54459
G01 X1.12094 Y-0.54694
G01 X1.15313 Y-0.54724
G01 X1.15551 Y-0.55205
G01 X1.15551 Y-0.56496
G01 X1.16863 Y-0.56496
G01 X1.17296 Y-0.56746
G01 X1.18079 Y-0.57000
G01 X1.18898 Y-0.57087
G01 X1.20079 Y-0.57087
G01 X1.20847 Y-0.57011
G01 X1.21585 Y-0.56787
G01 X1.22130 Y-0.56496
G01 X1.22244 Y-0.56496
G01 X1.22244 Y-0.56435
G01 X1.22863 Y-0.55933
G01 X1.24831 Y-0.53965
G01 X1.25349 Y-0.53325
G01 X1.25723 Y-0.52592
G01 X1.25936 Y-0.51797
G01 X1.25979 Y-0.50975
G01 X1.25850 Y-0.50162
G01 X1.25555 Y-0.49394
G01 X1.25107 Y-0.48703
G01 X1.24525 Y-0.48121
G01 X1.23835 Y-0.47673
G01 X1.23066 Y-0.47378
G01 X1.22253 Y-0.47249
G01 X1.21431 Y-0.47292
G01 X1.20636 Y-0.47506
G01 X1.19903 Y-0.47879
G01 X1.19263 Y-0.48397
G01 X1.18395 Y-0.49265
G01 X1.18079 Y-0.49299
G01 X1.17296 Y-0.49553
G01 X1.16863 Y-0.49803
G01 X1.15551 Y-0.49803
G01 X1.15551 Y-0.51094
G01 X1.15313 Y-0.51575
G01 X1.13054 Y-0.51575
G01 X1.04094 Y-0.42615
G01 X1.04094 Y-0.34687
G01 X1.04488 Y-0.34512
G01 X1.05154 Y-0.34028
G01 X1.05705 Y-0.33416
G01 X1.06116 Y-0.32704
G01 X1.06371 Y-0.31921
G01 X1.06457 Y-0.31102
G01 X1.06457 Y-0.22092
G01 X1.06595 Y-0.21832
G01 X1.06820 Y-0.21093
G01 X1.06895 Y-0.20325
G01 X1.06809 Y-0.18866
G01 X1.06555 Y-0.18084
G01 X1.06143 Y-0.17371
G01 X1.05593 Y-0.16759
G01 X1.04927 Y-0.16275
G01 X1.04175 Y-0.15941
G01 X1.03370 Y-0.15770
G01 X1.02547 Y-0.15770
G01 X1.01742 Y-0.15941
G01 X1.00990 Y-0.16275
G01 X1.00324 Y-0.16759
G01 X0.99773 Y-0.17371
G01 X0.99362 Y-0.18084
G01 X0.99132 Y-0.18790
G01 X0.98882 Y-0.19257
G01 X0.98658 Y-0.19996
G01 X0.98583 Y-0.20764
G01 X0.98583 Y-0.31102
G04 P0 ( dwell for no time -- G64 should not smooth over this point )
G00 Z0.07874 ( retract )

G00 X0.92520 Y-0.40410 ( rapid move to begin. )
G01 F2.95276
G01 Z-0.00787
G04 P0 ( dwell for no time -- G64 should not smooth over this point )
G01 F5.90551
G01 X0.92520 Y-0.40410
G01 X0.92639 Y-0.41013
G01 X0.92981 Y-0.41524
G01 X1.12374 Y-0.60917
G01 X1.12612 Y-0.61113
G01 X1.13180 Y-0.61348
G01 X1.14899 Y-0.61378
G01 X1.15246 Y-0.61725
G01 X1.14982 Y-0.62738
G01 X1.14982 Y-0.63561
G01 X1.15153 Y-0.64366
G01 X1.15488 Y-0.65118
G01 X1.15972 Y-0.65784
G01 X1.16583 Y-0.66335
G01 X1.17296 Y-0.66746
G01 X1.18079 Y-0.67000
G01 X1.18898 Y-0.67087
G01 X1.22047 Y-0.67087
G01 X1.22866 Y-0.67000
G01 X1.23649 Y-0.66746
G01 X1.24361 Y-0.66335
G01 X1.24973 Y-0.65784
G01 X1.25457 Y-0.65118
G01 X1.25632 Y-0.64724
G01 X1.38463 Y-0.64724
G01 X1.38701 Y-0.64862
G01 X1.38701 Y-0.64941
G01 X1.39713 Y-0.65249
G01 X1.40531 Y-0.65335
G01 X1.42244 Y-0.65335
G01 X1.43063 Y-0.65249
G01 X1.43938 Y-0.64941
G01 X1.45787 Y-0.64941
G01 X1.45787 Y-0.63066
G01 X1.45988 Y-0.62614
G01 X1.46159 Y-0.61809
G01 X1.46159 Y-0.60986
G01 X1.45988 Y-0.60181
G01 X1.45787 Y-0.59730
G01 X1.45787 Y-0.57854
G01 X1.43938 Y-0.57854
G01 X1.43063 Y-0.57547
G01 X1.42244 Y-0.57461
G01 X1.40531 Y-0.57461
G01 X1.39713 Y-0.57547
G01 X1.38701 Y-0.57854
G01 X1.38701 Y-0.57933
G01 X1.38217 Y-0.58213
G01 X1.37606 Y-0.58763
G01 X1.37122 Y-0.59429
G01 X1.36787 Y-0.60181
G01 X1.36616 Y-0.60986
G01 X1.36616 Y-0.61575
G01 X1.25632 Y-0.61575
G01 X1.25457 Y-0.61181
G01 X1.24973 Y-0.60515
G01 X1.24361 Y-0.59964
G01 X1.23649 Y-0.59553
G01 X1.22866 Y-0.59299
G01 X1.22047 Y-0.59213
G01 X1.18898 Y-0.59213
G01 X1.18079 Y-0.59299
G01 X1.17471 Y-0.59496
G01 X1.16665 Y-0.58689
G01 X1.16154 Y-0.58348
G01 X1.15551 Y-0.58228
G01 X1.14139 Y-0.58228
G01 X0.95669 Y-0.39758
G01 X0.95635 Y-0.33590
G01 X0.95533 Y-0.33277
G01 X0.95148 Y-0.32747
G01 X0.94581 Y-0.32420
G01 X0.93930 Y-0.32351
G01 X0.93307 Y-0.32554
G01 X0.92820 Y-0.32992
G01 X0.92554 Y-0.33590
G01 X0.92520 Y-0.40410
G04 P0 ( dwell for no time -- G64 should not smooth over this point )
G00 Z0.07874 ( retract )

G00 X0.77568 Y-0.34082 ( rapid move to begin. )
G01 F2.95276
G01 Z-0.00787
G04 P0 ( dwell for no time -- G64 should not smooth over this point )
G01 F5.90551
G01 X0.77568 Y-0.34082
G01 X0.77636 Y-0.34404
G01 X0.77963 Y-0.34971
G01 X0.78493 Y-0.35356
G01 X0.78999 Y-0.35478
G01 X1.15246 Y-0.71725
G01 X1.14982 Y-0.72738
G01 X1.14982 Y-0.73561
G01 X1.15153 Y-0.74366
G01 X1.15488 Y-0.75118
G01 X1.15972 Y-0.75784
G01 X1.16583 Y-0.76335
G01 X1.17296 Y-0.76746
G01 X1.18079 Y-0.77001
G01 X1.18898 Y-0.77087
G01 X1.22047 Y-0.77087
G01 X1.22866 Y-0.77001
G01 X1.23649 Y-0.76746
G01 X1.24361 Y-0.76335
G01 X1.24973 Y-0.75784
G01 X1.25457 Y-0.75118
G01 X1.25632 Y-0.74724
G01 X1.33812 Y-0.74724
G01 X1.34342 Y-0.75627
G01 X1.34924 Y-0.76209
G01 X1.35614 Y-0.76658
G01 X1.36383 Y-0.76952
G01 X1.37196 Y-0.77081
G01 X1.38017 Y-0.77038
G01 X1.38812 Y-0.76825
G01 X1.39546 Y-0.76451
G01 X1.40185 Y-0.75933
G01 X1.40784 Y-0.75335
G01 X1.42244 Y-0.75335
G01 X1.43063 Y-0.75249
G01 X1.43845 Y-0.74994
G01 X1.44558 Y-0.74583
G01 X1.45170 Y-0.74032
G01 X1.45654 Y-0.73366
G01 X1.45988 Y-0.72614
G01 X1.46159 Y-0.71809
G01 X1.46159 Y-0.70986
G01 X1.45988 Y-0.70181
G01 X1.45654 Y-0.69429
G01 X1.45170 Y-0.68763
G01 X1.44558 Y-0.68212
G01 X1.43845 Y-0.67801
G01 X1.43063 Y-0.67547
G01 X1.42244 Y-0.67461
G01 X1.39153 Y-0.67461
G01 X1.38385 Y-0.67536
G01 X1.37647 Y-0.67760
G01 X1.36966 Y-0.68124
G01 X1.36370 Y-0.68614
G01 X1.34618 Y-0.70366
G01 X1.34100 Y-0.71005
G01 X1.33810 Y-0.71575
G01 X1.25632 Y-0.71575
G01 X1.25457 Y-0.71181
G01 X1.24973 Y-0.70515
G01 X1.24361 Y-0.69964
G01 X1.23649 Y-0.69553
G01 X1.22866 Y-0.69299
G01 X1.22047 Y-0.69212
G01 X1.18898 Y-0.69212
G01 X1.18079 Y-0.69299
G01 X1.17471 Y-0.69496
G01 X0.80779 Y-0.32804
G01 X0.80540 Y-0.32608
G01 X0.79973 Y-0.32373
G01 X0.79134 Y-0.32343
G01 X0.78493 Y-0.32479
G01 X0.77963 Y-0.32864
G01 X0.77770 Y-0.33130
G01 X0.77568 Y-0.33753
G01 X0.77568 Y-0.34082
G04 P0 ( dwell for no time -- G64 should not smooth over this point )
G00 Z0.07874 ( retract )

G00 X0.26969 Y-0.63150 ( rapid move to begin. )
G01 F2.95276
G01 Z-0.00787
G04 P0 ( dwell for no time -- G64 should not smooth over this point )
G01 F5.90551
G01 X0.26969 Y-0.63150
G01 X0.27042 Y-0.62454
G01 X0.27258 Y-0.61788
G01 X0.27608 Y-0.61183
G01 X0.28076 Y-0.60663
G01 X0.28642 Y-0.60251
G01 X0.29281 Y-0.59967
G01 X0.29965 Y-0.59821
G01 X0.30665 Y-0.59821
G01 X0.31349 Y-0.59967
G01 X0.31988 Y-0.60251
G01 X0.32554 Y-0.60663
G01 X0.33022 Y-0.61183
G01 X0.33372 Y-0.61788
G01 X0.33588 Y-0.62454
G01 X0.33661 Y-0.63150
G01 X0.33588 Y-0.63845
G01 X0.33372 Y-0.64511
G01 X0.33022 Y-0.65117
G01 X0.32554 Y-0.65636
G01 X0.31988 Y-0.66048
G01 X0.31349 Y-0.66332
G01 X0.30665 Y-0.66478
G01 X0.29965 Y-0.66478
G01 X0.29281 Y-0.66332
G01 X0.28642 Y-0.66048
G01 X0.28076 Y-0.65636
G01 X0.27608 Y-0.65117
G01 X0.27258 Y-0.64511
G01 X0.27042 Y-0.63845
G01 X0.26969 Y-0.63150
G04 P0 ( dwell for no time -- G64 should not smooth over this point )
G00 Z0.07874 ( retract )

G00 X0.26969 Y-0.73150 ( rapid move to begin. )
G01 F2.95276
G01 Z-0.00787
G04 P0 ( dwell for no time -- G64 should not smooth over this point )
G01 F5.90551
G01 X0.26969 Y-0.73150
G01 X0.27042 Y-0.72454
G01 X0.27258 Y-0.71788
G01 X0.27608 Y-0.71183
G01 X0.28076 Y-0.70663
G01 X0.28642 Y-0.70251
G01 X0.29281 Y-0.69967
G01 X0.29965 Y-0.69821
G01 X0.30665 Y-0.69821
G01 X0.31349 Y-0.69967
G01 X0.31988 Y-0.70251
G01 X0.32554 Y-0.70663
G01 X0.33022 Y-0.71183
G01 X0.33372 Y-0.71788
G01 X0.33588 Y-0.72454
G01 X0.33661 Y-0.73150
G01 X0.33588 Y-0.73845
G01 X0.33372 Y-0.74511
G01 X0.33022 Y-0.75117
G01 X0.32554 Y-0.75636
G01 X0.31988 Y-0.76048
G01 X0.31349 Y-0.76332
G01 X0.30665 Y-0.76478
G01 X0.29965 Y-0.76478
G01 X0.29281 Y-0.76332
G01 X0.28642 Y-0.76048
G01 X0.28076 Y-0.75636
G01 X0.27608 Y-0.75117
G01 X0.27258 Y-0.74511
G01 X0.27042 Y-0.73845
G01 X0.26969 Y-0.73150
G04 P0 ( dwell for no time -- G64 should not smooth over this point )
G00 Z0.07874 ( retract )

G00 X0.26399 Y-1.03561 ( rapid move to begin. )
G01 F2.95276
G01 Z-0.00787
G04 P0 ( dwell for no time -- G64 should not smooth over this point )
G01 F5.90551
G01 X0.26399 Y-1.03561
G01 X0.26399 Y-1.02738
G01 X0.26571 Y-1.01933
G01 X0.26905 Y-1.01181
G01 X0.27389 Y-1.00515
G01 X0.28001 Y-0.99965
G01 X0.28714 Y-0.99553
G01 X0.29496 Y-0.99299
G01 X0.30315 Y-0.99213
G01 X0.35047 Y-0.99213
G01 X0.35866 Y-0.99299
G01 X0.36649 Y-0.99553
G01 X0.37362 Y-0.99965
G01 X0.37973 Y-1.00515
G01 X0.38457 Y-1.01181
G01 X0.38792 Y-1.01933
G01 X0.38963 Y-1.02738
G01 X0.38963 Y-1.03561
G01 X0.38792 Y-1.04366
G01 X0.38457 Y-1.05118
G01 X0.37973 Y-1.05784
G01 X0.37362 Y-1.06335
G01 X0.36649 Y-1.06746
G01 X0.35866 Y-1.07001
G01 X0.35047 Y-1.07087
G01 X0.30315 Y-1.07087
G01 X0.29496 Y-1.07001
G01 X0.28714 Y-1.06746
G01 X0.28001 Y-1.06335
G01 X0.27389 Y-1.05784
G01 X0.26905 Y-1.05118
G01 X0.26571 Y-1.04366
G01 X0.26399 Y-1.03561
G04 P0 ( dwell for no time -- G64 should not smooth over this point )
G00 Z0.07874 ( retract )

G00 X0.26399 Y-1.13561 ( rapid move to begin. )
G01 F2.95276
G01 Z-0.00787
G04 P0 ( dwell for no time -- G64 should not smooth over this point )
G01 F5.90551
G01 X0.26399 Y-1.13561
G01 X0.26399 Y-1.12738
G01 X0.26571 Y-1.11933
G01 X0.26905 Y-1.11181
G01 X0.27389 Y-1.10515
G01 X0.28001 Y-1.09964
G01 X0.28714 Y-1.09553
G01 X0.29496 Y-1.09299
G01 X0.30315 Y-1.09213
G01 X0.34182 Y-1.09213
G01 X0.34589 Y-1.09103
G01 X0.35411 Y-1.09061
G01 X0.36224 Y-1.09189
G01 X0.36992 Y-1.09484
G01 X0.37683 Y-1.09932
G01 X0.38265 Y-1.10514
G01 X0.38713 Y-1.11205
G01 X0.39008 Y-1.11973
G01 X0.39137 Y-1.12786
G01 X0.39093 Y-1.13608
G01 X0.38881 Y-1.14403
G01 X0.38507 Y-1.15136
G01 X0.37989 Y-1.15776
G01 X0.37235 Y-1.16423
G01 X0.36554 Y-1.16787
G01 X0.35816 Y-1.17011
G01 X0.35047 Y-1.17087
G01 X0.30315 Y-1.17087
G01 X0.29496 Y-1.17000
G01 X0.28714 Y-1.16746
G01 X0.28001 Y-1.16335
G01 X0.27389 Y-1.15784
G01 X0.26905 Y-1.15118
G01 X0.26571 Y-1.14366
G01 X0.26399 Y-1.13561
G04 P0 ( dwell for no time -- G64 should not smooth over this point )
G00 Z0.07874 ( retract )

G00 X0.26399 Y-1.23561 ( rapid move to begin. )
G01 F2.95276
G01 Z-0.00787
G04 P0 ( dwell for no time -- G64 should not smooth over this point )
G01 F5.90551
G01 X0.26399 Y-1.23561
G01 X0.26399 Y-1.22738
G01 X0.26571 Y-1.21933
G01 X0.26905 Y-1.21181
G01 X0.27389 Y-1.20515
G01 X0.28001 Y-1.19965
G01 X0.28714 Y-1.19553
G01 X0.29496 Y-1.19299
G01 X0.30315 Y-1.19213
G01 X0.36535 Y-1.19213
G01 X0.37354 Y-1.19299
G01 X0.38137 Y-1.19553
G01 X0.38849 Y-1.19965
G01 X0.39461 Y-1.20515
G01 X0.39945 Y-1.21181
G01 X0.40280 Y-1.21933
G01 X0.40451 Y-1.22738
G01 X0.40451 Y-1.23561
G01 X0.40280 Y-1.24366
G01 X0.39945 Y-1.25118
G01 X0.39461 Y-1.25784
G01 X0.38849 Y-1.26335
G01 X0.38137 Y-1.26746
G01 X0.37354 Y-1.27001
G01 X0.36535 Y-1.27087
G01 X0.30315 Y-1.27087
G01 X0.29496 Y-1.27001
G01 X0.28714 Y-1.26746
G01 X0.28001 Y-1.26335
G01 X0.27389 Y-1.25784
G01 X0.26905 Y-1.25118
G01 X0.26571 Y-1.24366
G01 X0.26399 Y-1.23561
G04 P0 ( dwell for no time -- G64 should not smooth over this point )
G00 Z0.07874 ( retract )

G00 X0.26399 Y-1.33561 ( rapid move to begin. )
G01 F2.95276
G01 Z-0.00787
G04 P0 ( dwell for no time -- G64 should not smooth over this point )
G01 F5.90551
G01 X0.26399 Y-1.33561
G01 X0.26399 Y-1.32738
G01 X0.26571 Y-1.31933
G01 X0.26905 Y-1.31181
G01 X0.27389 Y-1.30515
G01 X0.28001 Y-1.29964
G01 X0.28714 Y-1.29553
G01 X0.29496 Y-1.29299
G01 X0.30315 Y-1.29212
G01 X0.36142 Y-1.29212
G01 X0.36960 Y-1.29299
G01 X0.37743 Y-1.29553
G01 X0.38456 Y-1.29964
G01 X0.39067 Y-1.30515
G01 X0.39551 Y-1.31181
G01 X0.39886 Y-1.31933
G01 X0.40057 Y-1.32738
G01 X0.40057 Y-1.33561
G01 X0.39886 Y-1.34366
G01 X0.39551 Y-1.35118
G01 X0.39067 Y-1.35784
G01 X0.38456 Y-1.36335
G01 X0.37743 Y-1.36746
G01 X0.36960 Y-1.37000
G01 X0.36142 Y-1.37087
G01 X0.30315 Y-1.37087
G01 X0.29496 Y-1.37000
G01 X0.28714 Y-1.36746
G01 X0.28001 Y-1.36335
G01 X0.27389 Y-1.35784
G01 X0.26905 Y-1.35118
G01 X0.26571 Y-1.34366
G01 X0.26399 Y-1.33561
G04 P0 ( dwell for no time -- G64 should not smooth over this point )
G00 Z0.07874 ( retract )

G00 X0.26399 Y-1.43561 ( rapid move to begin. )
G01 F2.95276
G01 Z-0.00787
G04 P0 ( dwell for no time -- G64 should not smooth over this point )
G01 F5.90551
G01 X0.26399 Y-1.43561
G01 X0.26399 Y-1.42738
G01 X0.26571 Y-1.41933
G01 X0.26905 Y-1.41181
G01 X0.27389 Y-1.40515
G01 X0.28001 Y-1.39965
G01 X0.28714 Y-1.39553
G01 X0.29496 Y-1.39299
G01 X0.30315 Y-1.39213
G01 X0.35984 Y-1.39213
G01 X0.36803 Y-1.39299
G01 X0.37585 Y-1.39553
G01 X0.38298 Y-1.39965
G01 X0.38910 Y-1.40515
G01 X0.39394 Y-1.41181
G01 X0.39728 Y-1.41933
G01 X0.39900 Y-1.42738
G01 X0.39900 Y-1.43561
G01 X0.39728 Y-1.44366
G01 X0.39394 Y-1.45118
G01 X0.38910 Y-1.45784
G01 X0.38298 Y-1.46335
G01 X0.37585 Y-1.46746
G01 X0.36803 Y-1.47001
G01 X0.35984 Y-1.47087
G01 X0.30315 Y-1.47087
G01 X0.29496 Y-1.47001
G01 X0.28714 Y-1.46746
G01 X0.28001 Y-1.46335
G01 X0.27389 Y-1.45784
G01 X0.26905 Y-1.45118
G01 X0.26571 Y-1.44366
G01 X0.26399 Y-1.43561
G04 P0 ( dwell for no time -- G64 should not smooth over this point )
G00 Z0.07874 ( retract )

G00 X0.26399 Y-1.53561 ( rapid move to begin. )
G01 F2.95276
G01 Z-0.00787
G04 P0 ( dwell for no time -- G64 should not smooth over this point )
G01 F5.90551
G01 X0.26399 Y-1.53561
G01 X0.26399 Y-1.52738
G01 X0.26571 Y-1.51933
G01 X0.26905 Y-1.51181
G01 X0.27389 Y-1.50515
G01 X0.28001 Y-1.49964
G01 X0.28714 Y-1.49553
G01 X0.29496 Y-1.49299
G01 X0.30315 Y-1.49212
G01 X0.35047 Y-1.49212
G01 X0.35816 Y-1.49288
G01 X0.36554 Y-1.49512
G01 X0.37235 Y-1.49876
G01 X0.37831 Y-1.50366
G01 X0.38611 Y-1.51145
G01 X0.39129 Y-1.51785
G01 X0.39502 Y-1.52518
G01 X0.39715 Y-1.53313
G01 X0.39758 Y-1.54135
G01 X0.39630 Y-1.54948
G01 X0.39335 Y-1.55716
G01 X0.38886 Y-1.56406
G01 X0.38304 Y-1.56988
G01 X0.37614 Y-1.57437
G01 X0.36846 Y-1.57732
G01 X0.36033 Y-1.57860
G01 X0.35211 Y-1.57817
G01 X0.34416 Y-1.57604
G01 X0.33505 Y-1.57087
G01 X0.30315 Y-1.57087
G01 X0.29496 Y-1.57001
G01 X0.28714 Y-1.56746
G01 X0.28001 Y-1.56335
G01 X0.27389 Y-1.55784
G01 X0.26905 Y-1.55118
G01 X0.26571 Y-1.54366
G01 X0.26399 Y-1.53561
G04 P0 ( dwell for no time -- G64 should not smooth over this point )
G00 Z0.07874 ( retract )

G00 X0.26399 Y-1.63561 ( rapid move to begin. )
G01 F2.95276
G01 Z-0.00787
G04 P0 ( dwell for no time -- G64 should not smooth over this point )
G01 F5.90551
G01 X0.26399 Y-1.63561
G01 X0.26399 Y-1.62738
G01 X0.26571 Y-1.61933
G01 X0.26905 Y-1.61181
G01 X0.27389 Y-1.60515
G01 X0.28001 Y-1.59964
G01 X0.28714 Y-1.59553
G01 X0.29496 Y-1.59299
G01 X0.30315 Y-1.59213
G01 X0.35984 Y-1.59213
G01 X0.36803 Y-1.59299
G01 X0.37585 Y-1.59553
G01 X0.38298 Y-1.59964
G01 X0.38910 Y-1.60515
G01 X0.39394 Y-1.61181
G01 X0.39728 Y-1.61933
G01 X0.39900 Y-1.62738
G01 X0.39900 Y-1.63561
G01 X0.39728 Y-1.64366
G01 X0.39394 Y-1.65118
G01 X0.38910 Y-1.65784
G01 X0.38298 Y-1.66335
G01 X0.37585 Y-1.66746
G01 X0.36803 Y-1.67000
G01 X0.35984 Y-1.67087
G01 X0.30315 Y-1.67087
G01 X0.29496 Y-1.67000
G01 X0.28714 Y-1.66746
G01 X0.28001 Y-1.66335
G01 X0.27389 Y-1.65784
G01 X0.26905 Y-1.65118
G01 X0.26571 Y-1.64366
G01 X0.26399 Y-1.63561
G04 P0 ( dwell for no time -- G64 should not smooth over this point )
G00 Z0.07874 ( retract )

G00 X0.26399 Y-1.73561 ( rapid move to begin. )
G01 F2.95276
G01 Z-0.00787
G04 P0 ( dwell for no time -- G64 should not smooth over this point )
G01 F5.90551
G01 X0.26399 Y-1.73561
G01 X0.26399 Y-1.72738
G01 X0.26571 Y-1.71933
G01 X0.26905 Y-1.71181
G01 X0.27389 Y-1.70515
G01 X0.28001 Y-1.69965
G01 X0.28714 Y-1.69553
G01 X0.29496 Y-1.69299
G01 X0.30315 Y-1.69213
G01 X0.33937 Y-1.69213
G01 X0.34756 Y-1.69299
G01 X0.35538 Y-1.69553
G01 X0.36251 Y-1.69965
G01 X0.36863 Y-1.70515
G01 X0.37346 Y-1.71181
G01 X0.37681 Y-1.71933
G01 X0.37852 Y-1.72738
G01 X0.37852 Y-1.73561
G01 X0.37681 Y-1.74366
G01 X0.37346 Y-1.75118
G01 X0.36863 Y-1.75784
G01 X0.36251 Y-1.76335
G01 X0.35538 Y-1.76746
G01 X0.34756 Y-1.77001
G01 X0.33937 Y-1.77087
G01 X0.30315 Y-1.77087
G01 X0.29496 Y-1.77001
G01 X0.28714 Y-1.76746
G01 X0.28001 Y-1.76335
G01 X0.27389 Y-1.75784
G01 X0.26905 Y-1.75118
G01 X0.26571 Y-1.74366
G01 X0.26399 Y-1.73561
G04 P0 ( dwell for no time -- G64 should not smooth over this point )
G00 Z0.07874 ( retract )

G00 X0.26399 Y-1.83561 ( rapid move to begin. )
G01 F2.95276
G01 Z-0.00787
G04 P0 ( dwell for no time -- G64 should not smooth over this point )
G01 F5.90551
G01 X0.26399 Y-1.83561
G01 X0.26399 Y-1.82738
G01 X0.26571 Y-1.81933
G01 X0.26905 Y-1.81181
G01 X0.27389 Y-1.80515
G01 X0.28001 Y-1.79964
G01 X0.28714 Y-1.79553
G01 X0.29496 Y-1.79299
G01 X0.30315 Y-1.79212
G01 X0.34173 Y-1.79212
G01 X0.34992 Y-1.79299
G01 X0.35774 Y-1.79553
G01 X0.36487 Y-1.79964
G01 X0.37099 Y-1.80515
G01 X0.37583 Y-1.81181
G01 X0.37917 Y-1.81933
G01 X0.38089 Y-1.82738
G01 X0.38089 Y-1.83561
G01 X0.37917 Y-1.84366
G01 X0.37583 Y-1.85118
G01 X0.37099 Y-1.85784
G01 X0.36487 Y-1.86335
G01 X0.35774 Y-1.86746
G01 X0.34992 Y-1.87000
G01 X0.34173 Y-1.87087
G01 X0.30315 Y-1.87087
G01 X0.29496 Y-1.87000
G01 X0.28714 Y-1.86746
G01 X0.28001 Y-1.86335
G01 X0.27389 Y-1.85784
G01 X0.26905 Y-1.85118
G01 X0.26571 Y-1.84366
G01 X0.26399 Y-1.83561
G04 P0 ( dwell for no time -- G64 should not smooth over this point )
G00 Z0.07874 ( retract )

G00 X0.18898 Y-1.98819 ( rapid move to begin. )
G01 F2.95276
G01 Z-0.00787
G04 P0 ( dwell for no time -- G64 should not smooth over this point )
G01 F5.90551
G01 X0.18898 Y-1.98819
G01 X0.18898 Y-0.59842
G01 X0.19018 Y-0.59240
G01 X0.19163 Y-0.58968
G01 X0.19488 Y-0.58600
G01 X0.19488 Y-0.55905
G01 X0.19518 Y-0.55598
G01 X0.19753 Y-0.55031
G01 X0.22705 Y-0.52036
G01 X0.23216 Y-0.51695
G01 X0.23819 Y-0.51575
G01 X0.26968 Y-0.51575
G01 X0.26969 Y-0.49803
G01 X0.33661 Y-0.49803
G01 X0.33661 Y-0.56496
G01 X0.26969 Y-0.56496
G01 X0.26968 Y-0.54724
G01 X0.24471 Y-0.54724
G01 X0.22638 Y-0.56558
G01 X0.22607 Y-0.59559
G01 X0.22372 Y-0.60127
G01 X0.22047 Y-0.60495
G01 X0.22047 Y-1.98167
G01 X0.23881 Y-2.00000
G01 X1.48167 Y-2.00000
G01 X1.72047 Y-1.76119
G01 X1.72047 Y-1.37266
G01 X1.61391 Y-1.26610
G01 X1.61284 Y-1.26850
G01 X1.60800 Y-1.27516
G01 X1.60188 Y-1.28067
G01 X1.59475 Y-1.28479
G01 X1.58692 Y-1.28733
G01 X1.57874 Y-1.28819
G01 X1.52756 Y-1.28819
G01 X1.51937 Y-1.28733
G01 X1.51154 Y-1.28479
G01 X1.50442 Y-1.28067
G01 X1.49830 Y-1.27516
G01 X1.49346 Y-1.26850
G01 X1.49012 Y-1.26098
G01 X1.48840 Y-1.25293
G01 X1.48840 Y-1.24470
G01 X1.49012 Y-1.23665
G01 X1.49346 Y-1.22913
G01 X1.49830 Y-1.22247
G01 X1.50442 Y-1.21697
G01 X1.51154 Y-1.21285
G01 X1.51937 Y-1.21031
G01 X1.52756 Y-1.20945
G01 X1.57874 Y-1.20945
G01 X1.58692 Y-1.21031
G01 X1.59475 Y-1.21285
G01 X1.60188 Y-1.21697
G01 X1.60800 Y-1.22247
G01 X1.61284 Y-1.22913
G01 X1.61459 Y-1.23307
G01 X1.62197 Y-1.23337
G01 X1.62492 Y-1.23427
G01 X1.63003 Y-1.23768
G01 X1.74736 Y-1.35501
G01 X1.75077 Y-1.36011
G01 X1.75197 Y-1.36614
G01 X1.75197 Y-1.76772
G01 X1.75077 Y-1.77374
G01 X1.74736 Y-1.77885
G01 X1.49932 Y-2.02688
G01 X1.49422 Y-2.03030
G01 X1.48819 Y-2.03150
G01 X0.23228 Y-2.03150
G01 X0.22626 Y-2.03030
G01 X0.22115 Y-2.02688
G01 X0.19359 Y-1.99932
G01 X0.19018 Y-1.99422
G01 X0.18898 Y-1.98819
G04 P0 ( dwell for no time -- G64 should not smooth over this point )
G00 Z0.07874 ( retract )

G00 X0.13780 Y-2.04724 ( rapid move to begin. )
G01 F2.95276
G01 Z-0.00787
G04 P0 ( dwell for no time -- G64 should not smooth over this point )
G01 F5.90551
G01 X0.13780 Y-2.04724
G01 X0.13780 Y-0.43307
G01 X0.13899 Y-0.42704
G01 X0.14241 Y-0.42194
G01 X0.16603 Y-0.39831
G01 X0.17114 Y-0.39490
G01 X0.17716 Y-0.39370
G01 X0.36921 Y-0.39400
G01 X0.37489 Y-0.39635
G01 X0.37728 Y-0.39831
G01 X0.40877 Y-0.42981
G01 X0.41219 Y-0.43492
G01 X0.41339 Y-0.44094
G01 X0.41308 Y-0.74008
G01 X0.41219 Y-0.74303
G01 X0.40877 Y-0.74814
G01 X0.33502 Y-0.82189
G01 X0.33588 Y-0.82454
G01 X0.33661 Y-0.83150
G01 X0.33588 Y-0.83845
G01 X0.33372 Y-0.84511
G01 X0.33022 Y-0.85117
G01 X0.32554 Y-0.85637
G01 X0.31988 Y-0.86048
G01 X0.31349 Y-0.86332
G01 X0.30665 Y-0.86478
G01 X0.29965 Y-0.86478
G01 X0.29281 Y-0.86332
G01 X0.28642 Y-0.86048
G01 X0.28076 Y-0.85637
G01 X0.27608 Y-0.85117
G01 X0.27258 Y-0.84511
G01 X0.27042 Y-0.83845
G01 X0.26969 Y-0.83150
G01 X0.27042 Y-0.82454
G01 X0.27258 Y-0.81788
G01 X0.27608 Y-0.81183
G01 X0.28076 Y-0.80663
G01 X0.28642 Y-0.80251
G01 X0.29281 Y-0.79967
G01 X0.29965 Y-0.79821
G01 X0.30665 Y-0.79821
G01 X0.31284 Y-0.79953
G01 X0.38189 Y-0.73048
G01 X0.38189 Y-0.44747
G01 X0.35962 Y-0.42520
G01 X0.18369 Y-0.42520
G01 X0.16929 Y-0.43959
G01 X0.16929 Y-2.04072
G01 X0.20731 Y-2.07874
G01 X1.54859 Y-2.07874
G01 X1.79527 Y-1.83206
G01 X1.79527 Y-1.25455
G01 X1.71985 Y-1.17913
G01 X1.49891 Y-1.17913
G01 X1.49601 Y-1.18483
G01 X1.49083 Y-1.19122
G01 X1.45540 Y-1.22666
G01 X1.44900 Y-1.23184
G01 X1.44167 Y-1.23557
G01 X1.43372 Y-1.23770
G01 X1.42550 Y-1.23813
G01 X1.41737 Y-1.23685
G01 X1.40969 Y-1.23390
G01 X1.40278 Y-1.22941
G01 X1.39696 Y-1.22359
G01 X1.39248 Y-1.21669
G01 X1.38953 Y-1.20901
G01 X1.38824 Y-1.20088
G01 X1.38867 Y-1.19266
G01 X1.39080 Y-1.18471
G01 X1.39454 Y-1.17738
G01 X1.39972 Y-1.17098
G01 X1.43515 Y-1.13555
G01 X1.44155 Y-1.13037
G01 X1.44888 Y-1.12663
G01 X1.45683 Y-1.12450
G01 X1.46505 Y-1.12407
G01 X1.47318 Y-1.12536
G01 X1.48087 Y-1.12831
G01 X1.48777 Y-1.13279
G01 X1.49359 Y-1.13861
G01 X1.49889 Y-1.14764
G01 X1.72945 Y-1.14794
G01 X1.73513 Y-1.15029
G01 X1.73751 Y-1.15225
G01 X1.82216 Y-1.23690
G01 X1.82557 Y-1.24200
G01 X1.82677 Y-1.24803
G01 X1.82677 Y-1.83858
G01 X1.82557 Y-1.84461
G01 X1.82216 Y-1.84972
G01 X1.56625 Y-2.10562
G01 X1.56114 Y-2.10904
G01 X1.55512 Y-2.11024
G01 X0.20079 Y-2.11024
G01 X0.19476 Y-2.10904
G01 X0.18965 Y-2.10562
G01 X0.14241 Y-2.05838
G01 X0.13899 Y-2.05327
G01 X0.13780 Y-2.04724
G04 P0 ( dwell for no time -- G64 should not smooth over this point )
G00 Z0.07874 ( retract )

G00 X0.07874 Y-2.23228 ( rapid move to begin. )
G01 F2.95276
G01 Z-0.00787
G04 P0 ( dwell for no time -- G64 should not smooth over this point )
G01 F5.90551
G01 X0.07874 Y-2.23228
G01 X0.07874 Y-0.18504
G01 X0.07994 Y-0.17901
G01 X0.08335 Y-0.17390
G01 X0.16997 Y-0.08729
G01 X0.17508 Y-0.08388
G01 X0.17803 Y-0.08298
G01 X0.27638 Y-0.08298
G01 X0.27934 Y-0.08388
G01 X0.28445 Y-0.08729
G01 X0.31016 Y-0.11301
G01 X0.32029 Y-0.11037
G01 X0.32852 Y-0.11037
G01 X0.33658 Y-0.11208
G01 X0.34409 Y-0.11543
G01 X0.35075 Y-0.12027
G01 X0.35626 Y-0.12638
G01 X0.36038 Y-0.13351
G01 X0.36292 Y-0.14134
G01 X0.36378 Y-0.14952
G01 X0.36378 Y-0.21395
G01 X0.44089 Y-0.29106
G01 X0.44285 Y-0.29345
G01 X0.44520 Y-0.29912
G01 X0.44550 Y-0.31300
G01 X0.57019 Y-0.43768
G01 X0.57360 Y-0.44279
G01 X0.57480 Y-0.44882
G01 X0.57480 Y-1.29527
G01 X0.57360 Y-1.30130
G01 X0.57019 Y-1.30641
G01 X0.48031 Y-1.39629
G01 X0.48031 Y-1.81740
G01 X0.47912 Y-1.82343
G01 X0.47570 Y-1.82854
G01 X0.38932 Y-1.91492
G01 X0.39087 Y-1.91894
G01 X0.39215 Y-1.92707
G01 X0.39172 Y-1.93529
G01 X0.38959 Y-1.94324
G01 X0.38586 Y-1.95058
G01 X0.38068 Y-1.95697
G01 X0.37235 Y-1.96423
G01 X0.36554 Y-1.96787
G01 X0.35816 Y-1.97011
G01 X0.35047 Y-1.97087
G01 X0.30315 Y-1.97087
G01 X0.29496 Y-1.97001
G01 X0.28714 Y-1.96746
G01 X0.28001 Y-1.96335
G01 X0.27389 Y-1.95784
G01 X0.26905 Y-1.95118
G01 X0.26571 Y-1.94366
G01 X0.26399 Y-1.93561
G01 X0.26399 Y-1.92738
G01 X0.26571 Y-1.91933
G01 X0.26905 Y-1.91181
G01 X0.27389 Y-1.90515
G01 X0.28001 Y-1.89965
G01 X0.28714 Y-1.89553
G01 X0.29496 Y-1.89299
G01 X0.30315 Y-1.89213
G01 X0.33967 Y-1.89213
G01 X0.34668 Y-1.89025
G01 X0.35490 Y-1.88982
G01 X0.36303 Y-1.89111
G01 X0.36705 Y-1.89265
G01 X0.44882 Y-1.81088
G01 X0.44912 Y-1.38669
G01 X0.45147 Y-1.38101
G01 X0.45343 Y-1.37863
G01 X0.54331 Y-1.28875
G01 X0.54331 Y-0.45534
G01 X0.41862 Y-0.33065
G01 X0.41520 Y-0.32554
G01 X0.41431 Y-0.32259
G01 X0.41401 Y-0.30872
G01 X0.35702 Y-0.25174
G01 X0.35075 Y-0.25918
G01 X0.34409 Y-0.26402
G01 X0.33658 Y-0.26736
G01 X0.32852 Y-0.26908
G01 X0.32029 Y-0.26908
G01 X0.31224 Y-0.26736
G01 X0.30472 Y-0.26402
G01 X0.29807 Y-0.25918
G01 X0.29256 Y-0.25306
G01 X0.28844 Y-0.24593
G01 X0.28590 Y-0.23811
G01 X0.28504 Y-0.22992
G01 X0.28504 Y-0.14952
G01 X0.28590 Y-0.14134
G01 X0.28787 Y-0.13526
G01 X0.26679 Y-0.11417
G01 X0.18762 Y-0.11417
G01 X0.11024 Y-0.19156
G01 X0.11024 Y-2.22576
G01 X0.25062 Y-2.36614
G01 X0.27559 Y-2.36614
G01 X0.27559 Y-2.26378
G01 X0.33206 Y-2.26378
G01 X0.41800 Y-2.17784
G01 X0.42038 Y-2.17588
G01 X0.42606 Y-2.17353
G01 X1.61552 Y-2.17323
G01 X1.85433 Y-1.93442
G01 X1.85433 Y-1.01440
G01 X1.55478 Y-0.71485
G01 X1.54912 Y-0.71250
G01 X1.53954 Y-0.70335
G01 X1.52244 Y-0.70335
G01 X1.51425 Y-0.70249
G01 X1.50643 Y-0.69994
G01 X1.49930 Y-0.69583
G01 X1.49318 Y-0.69032
G01 X1.48835 Y-0.68366
G01 X1.48500 Y-0.67614
G01 X1.48329 Y-0.66809
G01 X1.48329 Y-0.65986
G01 X1.48500 Y-0.65181
G01 X1.48835 Y-0.64429
G01 X1.49318 Y-0.63763
G01 X1.49930 Y-0.63213
G01 X1.50643 Y-0.62801
G01 X1.51425 Y-0.62547
G01 X1.52244 Y-0.62461
G01 X1.53954 Y-0.62461
G01 X1.57087 Y-0.59328
G01 X1.57087 Y-0.16400
G01 X1.54663 Y-0.13976
G01 X0.98926 Y-0.13976
G01 X0.97876 Y-0.15135
G01 X0.98100 Y-0.15719
G01 X0.98228 Y-0.16532
G01 X0.98185 Y-0.17353
G01 X0.97972 Y-0.18149
G01 X0.97599 Y-0.18882
G01 X0.97081 Y-0.19521
G01 X0.96315 Y-0.20288
G01 X0.96037 Y-0.21286
G01 X0.95626 Y-0.21999
G01 X0.95075 Y-0.22611
G01 X0.94409 Y-0.23095
G01 X0.93658 Y-0.23429
G01 X0.92852 Y-0.23600
G01 X0.92029 Y-0.23600
G01 X0.91224 Y-0.23429
G01 X0.90472 Y-0.23095
G01 X0.89807 Y-0.22611
G01 X0.89256 Y-0.21999
G01 X0.88844 Y-0.21286
G01 X0.88590 Y-0.20503
G01 X0.88504 Y-0.19685
G01 X0.88504 Y-0.18593
G01 X0.88579 Y-0.17825
G01 X0.88804 Y-0.17087
G01 X0.89167 Y-0.16406
G01 X0.89657 Y-0.15810
G01 X0.91513 Y-0.13954
G01 X0.92153 Y-0.13436
G01 X0.92886 Y-0.13062
G01 X0.93681 Y-0.12849
G01 X0.94503 Y-0.12806
G01 X0.95541 Y-0.13021
G01 X0.97062 Y-0.11344
G01 X0.97306 Y-0.11125
G01 X0.97902 Y-0.10861
G01 X1.55315 Y-0.10827
G01 X1.55918 Y-0.10947
G01 X1.56190 Y-0.11092
G01 X1.59775 Y-0.14634
G01 X1.60116 Y-0.15145
G01 X1.60236 Y-0.15748
G01 X1.60236 Y-0.59980
G01 X1.60116 Y-0.60583
G01 X1.59971 Y-0.60855
G01 X1.58283 Y-0.62586
G01 X1.58944 Y-0.62801
G01 X1.59657 Y-0.63213
G01 X1.60268 Y-0.63763
G01 X1.60752 Y-0.64429
G01 X1.61087 Y-0.65181
G01 X1.61258 Y-0.65986
G01 X1.61258 Y-0.66809
G01 X1.61087 Y-0.67614
G01 X1.60752 Y-0.68366
G01 X1.60268 Y-0.69032
G01 X1.59657 Y-0.69583
G01 X1.58944 Y-0.69994
G01 X1.58565 Y-0.70117
G01 X1.88121 Y-0.99674
G01 X1.88463 Y-1.00185
G01 X1.88552 Y-1.00480
G01 X1.88583 Y-1.94094
G01 X1.88552 Y-1.94402
G01 X1.88317 Y-1.94969
G01 X1.63318 Y-2.20011
G01 X1.63080 Y-2.20207
G01 X1.62512 Y-2.20442
G01 X0.43566 Y-2.20472
G01 X0.35433 Y-2.28605
G01 X0.35433 Y-2.81496
G01 X0.27559 Y-2.81496
G01 X0.27559 Y-2.39764
G01 X0.24102 Y-2.39733
G01 X0.23807 Y-2.39644
G01 X0.23296 Y-2.39303
G01 X0.08335 Y-2.24342
G01 X0.07994 Y-2.23831
G01 X0.07874 Y-2.23228
G04 P0 ( dwell for no time -- G64 should not smooth over this point )
G00 Z0.07874 ( retract )

G00 X0.43307 Y-2.81496 ( rapid move to begin. )
G01 F2.95276
G01 Z-0.00787
G04 P0 ( dwell for no time -- G64 should not smooth over this point )
G01 F5.90551
G01 X0.43307 Y-2.81496
G01 X0.43307 Y-2.26378
G01 X0.51181 Y-2.26378
G01 X0.51181 Y-2.73031
G01 X1.37340 Y-2.73031
G01 X1.90945 Y-2.19426
G01 X1.90945 Y-0.44691
G01 X1.54128 Y-0.07874
G01 X0.96479 Y-0.07874
G01 X0.86378 Y-0.17975
G01 X0.86378 Y-0.19685
G01 X0.86292 Y-0.20503
G01 X0.86038 Y-0.21286
G01 X0.85626 Y-0.21999
G01 X0.85075 Y-0.22611
G01 X0.84409 Y-0.23095
G01 X0.83657 Y-0.23429
G01 X0.82852 Y-0.23600
G01 X0.82029 Y-0.23600
G01 X0.81224 Y-0.23429
G01 X0.80472 Y-0.23095
G01 X0.79807 Y-0.22611
G01 X0.79256 Y-0.21999
G01 X0.78844 Y-0.21286
G01 X0.78590 Y-0.20503
G01 X0.78504 Y-0.19685
G01 X0.78504 Y-0.14952
G01 X0.78580 Y-0.14184
G01 X0.78804 Y-0.13446
G01 X0.79167 Y-0.12765
G01 X0.79893 Y-0.11932
G01 X0.80533 Y-0.11414
G01 X0.81266 Y-0.11041
G01 X0.82061 Y-0.10828
G01 X0.82883 Y-0.10785
G01 X0.83696 Y-0.10913
G01 X0.84464 Y-0.11208
G01 X0.85155 Y-0.11657
G01 X0.85737 Y-0.12238
G01 X0.86185 Y-0.12929
G01 X0.86403 Y-0.13496
G01 X0.94713 Y-0.05186
G01 X0.95224 Y-0.04844
G01 X0.95520 Y-0.04755
G01 X1.54780 Y-0.04724
G01 X1.55383 Y-0.04844
G01 X1.55894 Y-0.05186
G01 X1.93633 Y-0.42925
G01 X1.93975 Y-0.43436
G01 X1.94064 Y-0.43731
G01 X1.94094 Y-2.20079
G01 X1.93975 Y-2.20681
G01 X1.93633 Y-2.21192
G01 X1.39106 Y-2.75720
G01 X1.38595 Y-2.76061
G01 X1.37992 Y-2.76181
G01 X0.51181 Y-2.76181
G01 X0.51181 Y-2.81496
G01 X0.43307 Y-2.81496
G04 P0 ( dwell for no time -- G64 should not smooth over this point )
G00 Z0.07874 ( retract )

G00 X1.11675 Y-1.93561 ( rapid move to begin. )
G01 F2.95276
G01 Z-0.00787
G04 P0 ( dwell for no time -- G64 should not smooth over this point )
G01 F5.90551
G01 X1.11675 Y-1.93561
G01 X1.11675 Y-1.92738
G01 X1.11846 Y-1.91933
G01 X1.12181 Y-1.91181
G01 X1.12665 Y-1.90515
G01 X1.13276 Y-1.89965
G01 X1.13989 Y-1.89553
G01 X1.14772 Y-1.89299
G01 X1.15590 Y-1.89213
G01 X1.18898 Y-1.89213
G01 X1.19716 Y-1.89299
G01 X1.20499 Y-1.89553
G01 X1.21212 Y-1.89965
G01 X1.21823 Y-1.90515
G01 X1.22307 Y-1.91181
G01 X1.22642 Y-1.91933
G01 X1.22813 Y-1.92738
G01 X1.22813 Y-1.93561
G01 X1.22642 Y-1.94366
G01 X1.22307 Y-1.95118
G01 X1.21823 Y-1.95784
G01 X1.21212 Y-1.96335
G01 X1.20499 Y-1.96746
G01 X1.19716 Y-1.97001
G01 X1.18898 Y-1.97087
G01 X1.15590 Y-1.97087
G01 X1.14772 Y-1.97001
G01 X1.13989 Y-1.96746
G01 X1.13276 Y-1.96335
G01 X1.12665 Y-1.95784
G01 X1.12181 Y-1.95118
G01 X1.11846 Y-1.94366
G01 X1.11675 Y-1.93561
G04 P0 ( dwell for no time -- G64 should not smooth over this point )
G00 Z0.07874 ( retract )

G00 X1.15551 Y-1.53150 ( rapid move to begin. )
G01 F2.95276
G01 Z-0.00787
G04 P0 ( dwell for no time -- G64 should not smooth over this point )
G01 F5.90551
G01 X1.15551 Y-1.53150
G01 X1.15624 Y-1.53845
G01 X1.15840 Y-1.54511
G01 X1.16190 Y-1.55117
G01 X1.16658 Y-1.55636
G01 X1.17224 Y-1.56048
G01 X1.17864 Y-1.56332
G01 X1.18548 Y-1.56478
G01 X1.19247 Y-1.56478
G01 X1.19932 Y-1.56332
G01 X1.20571 Y-1.56048
G01 X1.21137 Y-1.55636
G01 X1.21605 Y-1.55117
G01 X1.21955 Y-1.54511
G01 X1.22171 Y-1.53845
G01 X1.22244 Y-1.53150
G01 X1.22171 Y-1.52454
G01 X1.21955 Y-1.51788
G01 X1.21605 Y-1.51183
G01 X1.21137 Y-1.50663
G01 X1.20571 Y-1.50251
G01 X1.19932 Y-1.49967
G01 X1.19247 Y-1.49821
G01 X1.18548 Y-1.49821
G01 X1.17864 Y-1.49967
G01 X1.17224 Y-1.50251
G01 X1.16658 Y-1.50663
G01 X1.16190 Y-1.51183
G01 X1.15840 Y-1.51788
G01 X1.15624 Y-1.52454
G01 X1.15551 Y-1.53150
G04 P0 ( dwell for no time -- G64 should not smooth over this point )
G00 Z0.07874 ( retract )

G00 X1.09848 Y-1.43741 ( rapid move to begin. )
G01 F2.95276
G01 Z-0.00787
G04 P0 ( dwell for no time -- G64 should not smooth over this point )
G01 F5.90551
G01 X1.09848 Y-1.43741
G01 X1.09891 Y-1.42919
G01 X1.10104 Y-1.42124
G01 X1.10478 Y-1.41391
G01 X1.11381 Y-1.40366
G01 X1.11978 Y-1.39876
G01 X1.12658 Y-1.39512
G01 X1.13397 Y-1.39288
G01 X1.14165 Y-1.39213
G01 X1.18898 Y-1.39213
G01 X1.19716 Y-1.39299
G01 X1.20499 Y-1.39553
G01 X1.21212 Y-1.39965
G01 X1.21823 Y-1.40515
G01 X1.22307 Y-1.41181
G01 X1.22482 Y-1.41575
G01 X1.23937 Y-1.41605
G01 X1.24233 Y-1.41695
G01 X1.24744 Y-1.42036
G01 X1.36842 Y-1.54134
G01 X1.47969 Y-1.54134
G01 X1.51181 Y-1.50923
G01 X1.51181 Y-1.48425
G01 X1.49212 Y-1.48425
G01 X1.49212 Y-1.41338
G01 X1.56299 Y-1.41338
G01 X1.56299 Y-1.48425
G01 X1.54331 Y-1.48425
G01 X1.54331 Y-1.51575
G01 X1.54211 Y-1.52177
G01 X1.54065 Y-1.52450
G01 X1.49735 Y-1.56822
G01 X1.49224 Y-1.57164
G01 X1.48622 Y-1.57284
G01 X1.35882 Y-1.57253
G01 X1.35315 Y-1.57018
G01 X1.35076 Y-1.56822
G01 X1.22978 Y-1.44724
G01 X1.22482 Y-1.44724
G01 X1.22307 Y-1.45118
G01 X1.21823 Y-1.45784
G01 X1.21212 Y-1.46335
G01 X1.20499 Y-1.46746
G01 X1.19716 Y-1.47001
G01 X1.18898 Y-1.47087
G01 X1.15434 Y-1.47087
G01 X1.15190 Y-1.47211
G01 X1.14395 Y-1.47424
G01 X1.13573 Y-1.47467
G01 X1.12760 Y-1.47338
G01 X1.11992 Y-1.47043
G01 X1.11302 Y-1.46595
G01 X1.10720 Y-1.46013
G01 X1.10272 Y-1.45322
G01 X1.09977 Y-1.44554
G01 X1.09848 Y-1.43741
G04 P0 ( dwell for no time -- G64 should not smooth over this point )
G00 Z0.07874 ( retract )

G00 X1.09848 Y-1.32558 ( rapid move to begin. )
G01 F2.95276
G01 Z-0.00787
G04 P0 ( dwell for no time -- G64 should not smooth over this point )
G01 F5.90551
G01 X1.09848 Y-1.32558
G01 X1.09891 Y-1.33380
G01 X1.10104 Y-1.34175
G01 X1.10478 Y-1.34908
G01 X1.10996 Y-1.35548
G01 X1.11978 Y-1.36423
G01 X1.12658 Y-1.36787
G01 X1.13397 Y-1.37011
G01 X1.14165 Y-1.37087
G01 X1.18898 Y-1.37087
G01 X1.19716 Y-1.37000
G01 X1.20499 Y-1.36746
G01 X1.21212 Y-1.36335
G01 X1.21823 Y-1.35784
G01 X1.22307 Y-1.35118
G01 X1.22482 Y-1.34724
G01 X1.28954 Y-1.34724
G01 X1.32687 Y-1.38457
G01 X1.32423 Y-1.39470
G01 X1.32423 Y-1.40293
G01 X1.32594 Y-1.41098
G01 X1.32929 Y-1.41850
G01 X1.33413 Y-1.42516
G01 X1.34024 Y-1.43067
G01 X1.34737 Y-1.43478
G01 X1.35520 Y-1.43733
G01 X1.36339 Y-1.43819
G01 X1.42756 Y-1.43819
G01 X1.43574 Y-1.43733
G01 X1.44357 Y-1.43478
G01 X1.45070 Y-1.43067
G01 X1.45682 Y-1.42516
G01 X1.46165 Y-1.41850
G01 X1.46500 Y-1.41098
G01 X1.46671 Y-1.40293
G01 X1.46671 Y-1.39470
G01 X1.46500 Y-1.38665
G01 X1.46165 Y-1.37913
G01 X1.45682 Y-1.37247
G01 X1.45070 Y-1.36697
G01 X1.44357 Y-1.36285
G01 X1.43574 Y-1.36031
G01 X1.42756 Y-1.35945
G01 X1.36339 Y-1.35945
G01 X1.35520 Y-1.36031
G01 X1.34912 Y-1.36228
G01 X1.30720 Y-1.32036
G01 X1.30209 Y-1.31695
G01 X1.29913 Y-1.31605
G01 X1.22482 Y-1.31575
G01 X1.22307 Y-1.31181
G01 X1.21823 Y-1.30515
G01 X1.21212 Y-1.29964
G01 X1.20499 Y-1.29553
G01 X1.19716 Y-1.29299
G01 X1.18898 Y-1.29212
G01 X1.15434 Y-1.29212
G01 X1.15190 Y-1.29089
G01 X1.14395 Y-1.28876
G01 X1.13573 Y-1.28832
G01 X1.12760 Y-1.28961
G01 X1.11992 Y-1.29256
G01 X1.11302 Y-1.29704
G01 X1.10720 Y-1.30286
G01 X1.10272 Y-1.30977
G01 X1.09977 Y-1.31745
G01 X1.09848 Y-1.32558
G04 P0 ( dwell for no time -- G64 should not smooth over this point )
G00 Z0.07874 ( retract )

G00 X1.10730 Y-1.23561 ( rapid move to begin. )
G01 F2.95276
G01 Z-0.00787
G04 P0 ( dwell for no time -- G64 should not smooth over this point )
G01 F5.90551
G01 X1.10730 Y-1.23561
G01 X1.10730 Y-1.22738
G01 X1.10901 Y-1.21933
G01 X1.11236 Y-1.21181
G01 X1.11720 Y-1.20515
G01 X1.12332 Y-1.19965
G01 X1.13044 Y-1.19553
G01 X1.13827 Y-1.19299
G01 X1.14646 Y-1.19213
G01 X1.18898 Y-1.19213
G01 X1.19716 Y-1.19299
G01 X1.20499 Y-1.19553
G01 X1.21212 Y-1.19965
G01 X1.21823 Y-1.20515
G01 X1.22307 Y-1.21181
G01 X1.22482 Y-1.21575
G01 X1.36331 Y-1.21605
G01 X1.36626 Y-1.21695
G01 X1.37137 Y-1.22036
G01 X1.41046 Y-1.25945
G01 X1.42756 Y-1.25945
G01 X1.43574 Y-1.26031
G01 X1.44357 Y-1.26285
G01 X1.45070 Y-1.26697
G01 X1.45682 Y-1.27248
G01 X1.46165 Y-1.27913
G01 X1.46500 Y-1.28665
G01 X1.46671 Y-1.29470
G01 X1.46671 Y-1.30293
G01 X1.46500 Y-1.31098
G01 X1.46165 Y-1.31850
G01 X1.45682 Y-1.32516
G01 X1.45070 Y-1.33067
G01 X1.44357 Y-1.33479
G01 X1.43574 Y-1.33733
G01 X1.42756 Y-1.33819
G01 X1.37745 Y-1.33819
G01 X1.36977 Y-1.33743
G01 X1.36238 Y-1.33519
G01 X1.35558 Y-1.33155
G01 X1.34618 Y-1.32322
G01 X1.34100 Y-1.31683
G01 X1.33726 Y-1.30949
G01 X1.33513 Y-1.30154
G01 X1.33470 Y-1.29333
G01 X1.33599 Y-1.28520
G01 X1.33894 Y-1.27751
G01 X1.34342 Y-1.27061
G01 X1.34924 Y-1.26479
G01 X1.35614 Y-1.26031
G01 X1.36383 Y-1.25736
G01 X1.35371 Y-1.24724
G01 X1.22482 Y-1.24724
G01 X1.22307 Y-1.25118
G01 X1.21823 Y-1.25784
G01 X1.21212 Y-1.26335
G01 X1.20499 Y-1.26746
G01 X1.19716 Y-1.27001
G01 X1.18898 Y-1.27087
G01 X1.14646 Y-1.27087
G01 X1.13827 Y-1.27001
G01 X1.13044 Y-1.26746
G01 X1.12332 Y-1.26335
G01 X1.11720 Y-1.25784
G01 X1.11236 Y-1.25118
G01 X1.10901 Y-1.24366
G01 X1.10730 Y-1.23561
G04 P0 ( dwell for no time -- G64 should not smooth over this point )
G00 Z0.07874 ( retract )

G00 X1.14982 Y-1.13561 ( rapid move to begin. )
G01 F2.95276
G01 Z-0.00787
G04 P0 ( dwell for no time -- G64 should not smooth over this point )
G01 F5.90551
G01 X1.14982 Y-1.13561
G01 X1.14982 Y-1.12738
G01 X1.15153 Y-1.11933
G01 X1.15488 Y-1.11181
G01 X1.15972 Y-1.10515
G01 X1.16583 Y-1.09964
G01 X1.17296 Y-1.09553
G01 X1.18079 Y-1.09299
G01 X1.18898 Y-1.09213
G01 X1.20608 Y-1.09213
G01 X1.45750 Y-0.84070
G01 X1.45516 Y-0.83810
G01 X1.45104 Y-0.83097
G01 X1.44850 Y-0.82315
G01 X1.44764 Y-0.81496
G01 X1.44764 Y-0.79941
G01 X1.44839 Y-0.79173
G01 X1.45063 Y-0.78434
G01 X1.45427 Y-0.77754
G01 X1.45917 Y-0.77157
G01 X1.49460 Y-0.73614
G01 X1.50100 Y-0.73096
G01 X1.50833 Y-0.72722
G01 X1.51628 Y-0.72509
G01 X1.52450 Y-0.72466
G01 X1.53263 Y-0.72595
G01 X1.54031 Y-0.72890
G01 X1.54722 Y-0.73338
G01 X1.55304 Y-0.73920
G01 X1.55752 Y-0.74610
G01 X1.56047 Y-0.75379
G01 X1.56176 Y-0.76192
G01 X1.56133 Y-0.77014
G01 X1.55920 Y-0.77809
G01 X1.55546 Y-0.78542
G01 X1.55028 Y-0.79182
G01 X1.52629 Y-0.81581
G01 X1.52552 Y-0.82315
G01 X1.52297 Y-0.83097
G01 X1.51886 Y-0.83810
G01 X1.51335 Y-0.84422
G01 X1.50669 Y-0.84906
G01 X1.49917 Y-0.85240
G01 X1.48863 Y-0.85411
G01 X1.25008 Y-1.09266
G01 X1.25575 Y-1.09484
G01 X1.26265 Y-1.09932
G01 X1.26847 Y-1.10514
G01 X1.27296 Y-1.11205
G01 X1.27591 Y-1.11973
G01 X1.27719 Y-1.12786
G01 X1.27676 Y-1.13608
G01 X1.27463 Y-1.14403
G01 X1.27090 Y-1.15136
G01 X1.26414 Y-1.15933
G01 X1.25818 Y-1.16423
G01 X1.25137 Y-1.16787
G01 X1.24398 Y-1.17011
G01 X1.23630 Y-1.17087
G01 X1.18898 Y-1.17087
G01 X1.18079 Y-1.17000
G01 X1.17296 Y-1.16746
G01 X1.16583 Y-1.16335
G01 X1.15972 Y-1.15784
G01 X1.15488 Y-1.15118
G01 X1.15153 Y-1.14366
G01 X1.14982 Y-1.13561
G04 P0 ( dwell for no time -- G64 should not smooth over this point )
G00 Z0.07874 ( retract )

G00 X0.69527 Y-1.58661 ( rapid move to begin. )
G01 F2.95276
G01 Z-0.00787
G04 P0 ( dwell for no time -- G64 should not smooth over this point )
G01 F5.90551
G01 X0.69527 Y-1.58661
G01 X0.69527 Y-1.51968
G01 X0.69613 Y-1.51150
G01 X0.69868 Y-1.50367
G01 X0.70279 Y-1.49654
G01 X0.70830 Y-1.49043
G01 X0.71496 Y-1.48559
G01 X0.72248 Y-1.48224
G01 X0.73053 Y-1.48053
G01 X0.73876 Y-1.48053
G01 X0.74681 Y-1.48224
G01 X0.75433 Y-1.48559
G01 X0.76099 Y-1.49043
G01 X0.76650 Y-1.49654
G01 X0.77061 Y-1.50367
G01 X0.77316 Y-1.51150
G01 X0.77402 Y-1.51968
G01 X0.77402 Y-1.58661
G01 X0.77316 Y-1.59480
G01 X0.77061 Y-1.60263
G01 X0.76650 Y-1.60976
G01 X0.76434 Y-1.61215
G01 X0.76794 Y-1.61575
G01 X1.10195 Y-1.61575
G01 X1.10370 Y-1.61181
G01 X1.10854 Y-1.60515
G01 X1.11465 Y-1.59964
G01 X1.12178 Y-1.59553
G01 X1.12961 Y-1.59299
G01 X1.13779 Y-1.59213
G01 X1.18898 Y-1.59213
G01 X1.19716 Y-1.59299
G01 X1.20499 Y-1.59553
G01 X1.21212 Y-1.59964
G01 X1.21823 Y-1.60515
G01 X1.22307 Y-1.61181
G01 X1.22642 Y-1.61933
G01 X1.22813 Y-1.62738
G01 X1.22813 Y-1.63561
G01 X1.22642 Y-1.64366
G01 X1.22307 Y-1.65118
G01 X1.21823 Y-1.65784
G01 X1.21212 Y-1.66335
G01 X1.20499 Y-1.66746
G01 X1.19716 Y-1.67000
G01 X1.18898 Y-1.67087
G01 X1.13779 Y-1.67087
G01 X1.12961 Y-1.67000
G01 X1.12178 Y-1.66746
G01 X1.11465 Y-1.66335
G01 X1.10854 Y-1.65784
G01 X1.10370 Y-1.65118
G01 X1.10195 Y-1.64724
G01 X0.76142 Y-1.64724
G01 X0.75539 Y-1.64604
G01 X0.75267 Y-1.64459
G01 X0.73342 Y-1.62577
G01 X0.73053 Y-1.62577
G01 X0.72248 Y-1.62406
G01 X0.71496 Y-1.62071
G01 X0.70830 Y-1.61587
G01 X0.70279 Y-1.60976
G01 X0.69868 Y-1.60263
G01 X0.69613 Y-1.59480
G01 X0.69527 Y-1.58661
G04 P0 ( dwell for no time -- G64 should not smooth over this point )
G00 Z0.07874 ( retract )

G00 X0.59527 Y-1.62677 ( rapid move to begin. )
G01 F2.95276
G01 Z-0.00787
G04 P0 ( dwell for no time -- G64 should not smooth over this point )
G01 F5.90551
G01 X0.59527 Y-1.62677
G01 X0.59527 Y-1.55906
G01 X0.59613 Y-1.55087
G01 X0.59868 Y-1.54304
G01 X0.60279 Y-1.53591
G01 X0.60450 Y-1.53402
G01 X0.60191 Y-1.52664
G01 X0.60118 Y-1.51968
G01 X0.60191 Y-1.51273
G01 X0.60407 Y-1.50607
G01 X0.60757 Y-1.50002
G01 X0.61225 Y-1.49482
G01 X0.61791 Y-1.49070
G01 X0.62430 Y-1.48786
G01 X0.63115 Y-1.48640
G01 X0.63814 Y-1.48640
G01 X0.64499 Y-1.48786
G01 X0.65138 Y-1.49070
G01 X0.65704 Y-1.49482
G01 X0.66172 Y-1.50002
G01 X0.66522 Y-1.50607
G01 X0.66738 Y-1.51273
G01 X0.66811 Y-1.51968
G01 X0.66738 Y-1.52664
G01 X0.66480 Y-1.53402
G01 X0.66650 Y-1.53591
G01 X0.67061 Y-1.54304
G01 X0.67315 Y-1.55087
G01 X0.67402 Y-1.55906
G01 X0.67402 Y-1.62677
G01 X0.67315 Y-1.63496
G01 X0.67118 Y-1.64104
G01 X0.74668 Y-1.71653
G01 X0.79446 Y-1.71653
G01 X0.79913 Y-1.71575
G01 X1.10195 Y-1.71575
G01 X1.10370 Y-1.71181
G01 X1.10854 Y-1.70515
G01 X1.11465 Y-1.69965
G01 X1.12178 Y-1.69553
G01 X1.12961 Y-1.69299
G01 X1.13779 Y-1.69213
G01 X1.18898 Y-1.69213
G01 X1.19716 Y-1.69299
G01 X1.20499 Y-1.69553
G01 X1.21212 Y-1.69965
G01 X1.21823 Y-1.70515
G01 X1.22307 Y-1.71181
G01 X1.22642 Y-1.71933
G01 X1.22813 Y-1.72738
G01 X1.22813 Y-1.73561
G01 X1.22642 Y-1.74366
G01 X1.22307 Y-1.75118
G01 X1.21823 Y-1.75784
G01 X1.21212 Y-1.76335
G01 X1.20499 Y-1.76746
G01 X1.19716 Y-1.77001
G01 X1.18898 Y-1.77087
G01 X1.13779 Y-1.77087
G01 X1.12961 Y-1.77001
G01 X1.12178 Y-1.76746
G01 X1.11465 Y-1.76335
G01 X1.10854 Y-1.75784
G01 X1.10370 Y-1.75118
G01 X1.10195 Y-1.74724
G01 X0.73708 Y-1.74773
G01 X0.73413 Y-1.74683
G01 X0.72902 Y-1.74342
G01 X0.64889 Y-1.66329
G01 X0.63876 Y-1.66593
G01 X0.63053 Y-1.66593
G01 X0.62248 Y-1.66421
G01 X0.61496 Y-1.66087
G01 X0.60830 Y-1.65603
G01 X0.60279 Y-1.64991
G01 X0.59868 Y-1.64278
G01 X0.59613 Y-1.63496
G01 X0.59527 Y-1.62677
G04 P0 ( dwell for no time -- G64 should not smooth over this point )
G00 Z0.07874 ( retract )

G00 X0.51968 Y-1.62992 ( rapid move to begin. )
G01 F2.95276
G01 Z-0.00787
G04 P0 ( dwell for no time -- G64 should not smooth over this point )
G01 F5.90551
G01 X0.51968 Y-1.62992
G01 X0.51968 Y-1.53441
G01 X0.52088 Y-1.52838
G01 X0.52430 Y-1.52327
G01 X0.63590 Y-1.41210
G01 X0.63862 Y-1.41065
G01 X0.64465 Y-1.40945
G01 X0.80819 Y-1.40975
G01 X0.81387 Y-1.41210
G01 X0.82040 Y-1.41821
G01 X0.83053 Y-1.41557
G01 X0.83876 Y-1.41557
G01 X0.84681 Y-1.41728
G01 X0.85433 Y-1.42063
G01 X0.86099 Y-1.42547
G01 X0.86650 Y-1.43158
G01 X0.87061 Y-1.43871
G01 X0.87316 Y-1.44654
G01 X0.87401 Y-1.45472
G01 X0.87401 Y-1.51968
G01 X0.87316 Y-1.52787
G01 X0.87061 Y-1.53570
G01 X0.86811 Y-1.54003
G01 X0.86811 Y-1.55315
G01 X0.85520 Y-1.55315
G01 X0.84681 Y-1.55713
G01 X0.83876 Y-1.55884
G01 X0.83053 Y-1.55884
G01 X0.82248 Y-1.55713
G01 X0.81409 Y-1.55315
G01 X0.80118 Y-1.55315
G01 X0.80118 Y-1.54003
G01 X0.79868 Y-1.53570
G01 X0.79614 Y-1.52787
G01 X0.79527 Y-1.51968
G01 X0.79527 Y-1.45472
G01 X0.79614 Y-1.44654
G01 X0.79795 Y-1.44094
G01 X0.65117 Y-1.44094
G01 X0.55118 Y-1.54093
G01 X0.55118 Y-1.62340
G01 X0.74353 Y-1.81575
G01 X1.11376 Y-1.81575
G01 X1.11551 Y-1.81181
G01 X1.12035 Y-1.80515
G01 X1.12647 Y-1.79964
G01 X1.13359 Y-1.79553
G01 X1.14142 Y-1.79299
G01 X1.14961 Y-1.79212
G01 X1.23622 Y-1.79212
G01 X1.24440 Y-1.79299
G01 X1.25223 Y-1.79553
G01 X1.25936 Y-1.79964
G01 X1.26548 Y-1.80515
G01 X1.27032 Y-1.81181
G01 X1.27207 Y-1.81575
G01 X1.51631 Y-1.81575
G01 X1.64173 Y-1.69033
G01 X1.64173 Y-1.37266
G01 X1.63521 Y-1.36614
G01 X1.61282 Y-1.36614
G01 X1.61176 Y-1.36850
G01 X1.60693 Y-1.37516
G01 X1.60081 Y-1.38067
G01 X1.59368 Y-1.38478
G01 X1.58585 Y-1.38733
G01 X1.57767 Y-1.38819
G01 X1.52756 Y-1.38819
G01 X1.51937 Y-1.38733
G01 X1.51154 Y-1.38478
G01 X1.50442 Y-1.38067
G01 X1.49830 Y-1.37516
G01 X1.49346 Y-1.36850
G01 X1.49012 Y-1.36098
G01 X1.48840 Y-1.35293
G01 X1.48840 Y-1.34470
G01 X1.49012 Y-1.33665
G01 X1.49346 Y-1.32913
G01 X1.49830 Y-1.32248
G01 X1.50442 Y-1.31697
G01 X1.51154 Y-1.31285
G01 X1.51937 Y-1.31031
G01 X1.52756 Y-1.30945
G01 X1.57767 Y-1.30945
G01 X1.58585 Y-1.31031
G01 X1.59368 Y-1.31285
G01 X1.60081 Y-1.31697
G01 X1.60693 Y-1.32248
G01 X1.61176 Y-1.32913
G01 X1.61422 Y-1.33465
G01 X1.64173 Y-1.33465
G01 X1.64776 Y-1.33584
G01 X1.65048 Y-1.33730
G01 X1.66861 Y-1.35501
G01 X1.67057 Y-1.35739
G01 X1.67292 Y-1.36307
G01 X1.67323 Y-1.69685
G01 X1.67203 Y-1.70288
G01 X1.66861 Y-1.70799
G01 X1.53397 Y-1.84263
G01 X1.52886 Y-1.84604
G01 X1.52591 Y-1.84694
G01 X1.27207 Y-1.84724
G01 X1.27032 Y-1.85118
G01 X1.26548 Y-1.85784
G01 X1.25936 Y-1.86335
G01 X1.25223 Y-1.86746
G01 X1.24440 Y-1.87000
G01 X1.23622 Y-1.87087
G01 X1.14961 Y-1.87087
G01 X1.14142 Y-1.87000
G01 X1.13359 Y-1.86746
G01 X1.12647 Y-1.86335
G01 X1.12035 Y-1.85784
G01 X1.11551 Y-1.85118
G01 X1.11376 Y-1.84724
G01 X0.73394 Y-1.84694
G01 X0.72826 Y-1.84459
G01 X0.72587 Y-1.84263
G01 X0.52430 Y-1.64106
G01 X0.52088 Y-1.63595
G01 X0.51968 Y-1.62992

G04 P0 ( dwell for no time -- G64 should not smooth over this point )
G00 Z0.394 ( retract )

M5 ( Spindle off. )
G04 P1.000000
M9 ( Coolant off. )
M2 ( Program end. )

