( pcb2gcode 2.0.0 )
( Software-independent Gcode )
( This file uses a mill head of 0.07874inch to drill the 2 hole sizes. )
( Hole sizes: [0.0315 inch] [0.0394 inch] )

G94       (Inches per minute feed rate.)
G20       (Units == INCHES.)
G91.1     (Incremental arc distance mode.)
G90       (Absolute coordinates.)
S1000    (RPM spindle speed.)
G01 F1.96850 (Feedrate)
M3        (Spindle on clockwise.)
G04 P1.00000
G00 Z0.07874

G0 X1.42240 Y-0.61400
G1 Z-0.05906 F0.98425
G0 Z0.07874

G0 X1.52240 Y-0.66400
G1 Z-0.05906 F0.98425
G0 Z0.07874

G0 X1.42240 Y-0.71400
G1 Z-0.05906 F0.98425
G0 Z0.07874

G0 X1.52240 Y-0.76400
G1 Z-0.05906 F0.98425
G0 Z0.07874

G0 X1.42760 Y-1.19880
G1 Z-0.05906 F0.98425
G0 Z0.07874

G0 X1.42760 Y-1.29880
G1 Z-0.05906 F0.98425
G0 Z0.07874

G0 X1.42760 Y-1.39880
G1 Z-0.05906 F0.98425
G0 Z0.07874

G0 X1.52760 Y-1.44880
G1 Z-0.05906 F0.98425
G0 Z0.07874

G0 X1.52760 Y-1.34880
G1 Z-0.05906 F0.98425
G0 Z0.07874

G0 X1.52760 Y-1.24880
G1 Z-0.05906 F0.98425
G0 Z0.07874

G0 X0.22440 Y-0.19690
G1 Z-0.05906 F0.98425
G0 Z0.07874

G0 X0.32440 Y-0.19690
G1 Z-0.05906 F0.98425
G0 Z0.07874

G0 X0.42440 Y-0.19690
G1 Z-0.05906 F0.98425
G0 Z0.07874

G0 X0.52440 Y-0.19690
G1 Z-0.05906 F0.98425
G0 Z0.07874

G0 X0.62440 Y-0.19690
G1 Z-0.05906 F0.98425
G0 Z0.07874

G0 X0.72440 Y-0.19690
G1 Z-0.05906 F0.98425
G0 Z0.07874

G0 X0.82440 Y-0.19690
G1 Z-0.05906 F0.98425
G0 Z0.07874

G0 X0.92440 Y-0.19690
G1 Z-0.05906 F0.98425
G0 Z0.07874

G0 X1.02440 Y-0.19690
G1 Z-0.05906 F0.98425
G0 Z0.07874

G0 X1.18900 Y-0.53150
G1 Z-0.05906 F0.98425
G0 Z0.07874

G0 X1.18900 Y-0.63150
G1 Z-0.05906 F0.98425
G0 Z0.07874

G0 X1.18900 Y-0.73150
G1 Z-0.05906 F0.98425
G0 Z0.07874

G0 X1.18900 Y-0.83150
G1 Z-0.05906 F0.98425
G0 Z0.07874

G0 X1.18900 Y-0.93150
G1 Z-0.05906 F0.98425
G0 Z0.07874

G0 X1.18900 Y-1.03150
G1 Z-0.05906 F0.98425
G0 Z0.07874

G0 X1.18900 Y-1.13150
G1 Z-0.05906 F0.98425
G0 Z0.07874

G0 X1.18900 Y-1.23150
G1 Z-0.05906 F0.98425
G0 Z0.07874

G0 X1.18900 Y-1.33150
G1 Z-0.05906 F0.98425
G0 Z0.07874

G0 X1.18900 Y-1.43150
G1 Z-0.05906 F0.98425
G0 Z0.07874

G0 X1.18900 Y-1.53150
G1 Z-0.05906 F0.98425
G0 Z0.07874

G0 X1.18900 Y-1.63150
G1 Z-0.05906 F0.98425
G0 Z0.07874

G0 X1.18900 Y-1.73150
G1 Z-0.05906 F0.98425
G0 Z0.07874

G0 X1.18900 Y-1.83150
G1 Z-0.05906 F0.98425
G0 Z0.07874

G0 X1.18900 Y-1.93150
G1 Z-0.05906 F0.98425
G0 Z0.07874

G0 X0.83460 Y-1.51970
G1 Z-0.05906 F0.98425
G0 Z0.07874

G0 X0.73460 Y-1.51970
G1 Z-0.05906 F0.98425
G0 Z0.07874

G0 X0.63460 Y-1.51970
G1 Z-0.05906 F0.98425
G0 Z0.07874

G0 X0.30310 Y-1.93150
G1 Z-0.05906 F0.98425
G0 Z0.07874

G0 X0.30310 Y-1.83150
G1 Z-0.05906 F0.98425
G0 Z0.07874

G0 X0.30310 Y-1.73150
G1 Z-0.05906 F0.98425
G0 Z0.07874

G0 X0.30310 Y-1.63150
G1 Z-0.05906 F0.98425
G0 Z0.07874

G0 X0.30310 Y-1.53150
G1 Z-0.05906 F0.98425
G0 Z0.07874

G0 X0.30310 Y-1.43150
G1 Z-0.05906 F0.98425
G0 Z0.07874

G0 X0.30310 Y-1.33150
G1 Z-0.05906 F0.98425
G0 Z0.07874

G0 X0.30310 Y-1.23150
G1 Z-0.05906 F0.98425
G0 Z0.07874

G0 X0.30310 Y-1.13150
G1 Z-0.05906 F0.98425
G0 Z0.07874

G0 X0.30310 Y-1.03150
G1 Z-0.05906 F0.98425
G0 Z0.07874

G0 X0.30310 Y-0.93150
G1 Z-0.05906 F0.98425
G0 Z0.07874

G0 X0.30310 Y-0.83150
G1 Z-0.05906 F0.98425
G0 Z0.07874

G0 X0.30310 Y-0.73150
G1 Z-0.05906 F0.98425
G0 Z0.07874

G0 X0.30310 Y-0.63150
G1 Z-0.05906 F0.98425
G0 Z0.07874

G0 X0.30310 Y-0.53150
G1 Z-0.05906 F0.98425
G0 Z0.07874

G00 Z0.394 ( All done -- retract )

M5      (Spindle off.)
G04 P1.000000
M9      (Coolant off.)
M2      (Program end.)

