( pcb2gcode 2.0.0 )
( Software-independent Gcode )

G94 ( Inches per minute feed rate. )
G20 ( Units == INCHES. )

G90 ( Absolute coordinates. )
G00 S1000 ( RPM spindle speed. )
G64 P0.00040 ( set maximum deviation from commanded toolpath )
G01 F1.96850 ( Feedrate. )


G00 Z0.39370 (Retract to tool change height)
T0
M5      (Spindle stop.)
G04 P1.00000 (Wait for spindle to stop)
(MSG, Change tool bit to cutter diameter 0.07874in)
M6      (Tool change.)
M0      (Temporary machine stop.)
M3 ( Spindle on clockwise. )
G04 P1.00000 (Wait for spindle to get up to speed)
G04 P0 ( dwell for no time -- G64 should not smooth over this point )
G00 Z0.07874 ( retract )

G00 X-0.03937 Y-2.95275 ( rapid move to begin. )
G01 Z-0.05906 F0.98425 ( plunge. )
G04 P0 ( dwell for no time -- G64 should not smooth over this point )
G01 F1.96850
G01 X-0.03937 Y0.00000
G01 X-0.03861 Y0.00768
G01 X-0.03637 Y0.01507
G01 X-0.03274 Y0.02187
G01 X-0.02784 Y0.02784
G01 X-0.02187 Y0.03274
G01 X-0.01507 Y0.03637
G01 X-0.00768 Y0.03861
G01 X0.00000 Y0.03937
G01 X1.96850 Y0.03937
G01 X1.97618 Y0.03861
G01 X1.98357 Y0.03637
G01 X1.99038 Y0.03274
G01 X1.99634 Y0.02784
G01 X2.00124 Y0.02187
G01 X2.00488 Y0.01507
G01 X2.00712 Y0.00768
G01 X2.00787 Y0.00000
G01 X2.00787 Y-2.95275
G01 X2.00712 Y-2.96044
G01 X2.00488 Y-2.96782
G01 X2.00124 Y-2.97463
G01 X1.99634 Y-2.98059
G01 X1.99038 Y-2.98549
G01 X1.98357 Y-2.98913
G01 X1.97618 Y-2.99137
G01 X1.96850 Y-2.99213
G01 X0.00000 Y-2.99213
G01 X-0.00768 Y-2.99137
G01 X-0.01507 Y-2.98913
G01 X-0.02187 Y-2.98549
G01 X-0.02784 Y-2.98059
G01 X-0.03274 Y-2.97463
G01 X-0.03637 Y-2.96782
G01 X-0.03861 Y-2.96044
G01 X-0.03937 Y-2.95275

G04 P0 ( dwell for no time -- G64 should not smooth over this point )
G00 Z0.394 ( retract )

M5 ( Spindle off. )
G04 P1.000000
M9 ( Coolant off. )
M2 ( Program end. )

